gtk/icons/scalable/actions/gesture-rotate-anticlockwise-symbolic.svg

<?xml version="1.0" encoding="UTF-8" standalone="no"?>
<svg
   width="64"
   height="64"
   version="1.1"
   id="svg4"
   sodipodi:docname="gesture-rotate-anticlockwise-symbolic.svg"
   inkscape:version="1.4.2 (ebf0e940d0, 2025-05-08)"
   xmlns:inkscape="http://www.inkscape.org/namespaces/inkscape"
   xmlns:sodipodi="http://sodipodi.sourceforge.net/DTD/sodipodi-0.dtd"
   xmlns="http://www.w3.org/2000/svg"
   xmlns:svg="http://www.w3.org/2000/svg">
  <defs
     id="defs4">
    <inkscape:path-effect
       effect="fillet_chamfer"
       id="path-effect8"
       is_visible="true"
       lpeversion="1"
       nodesatellites_param="F,0,0,1,0,0,0,1 @ F,0,0,1,0,8,0,1 @ F,0,0,1,0,0,0,1"
       radius="0"
       unit="px"
       method="auto"
       mode="F"
       chamfer_steps="1"
       flexible="false"
       use_knot_distance="true"
       apply_no_radius="true"
       apply_with_radius="true"
       only_selected="false"
       hide_knots="false" />
    <inkscape:path-effect
       effect="fillet_chamfer"
       id="path-effect5"
       is_visible="true"
       lpeversion="1"
       nodesatellites_param="F,0,0,1,0,7.9800776,0,1 @ F,0,0,1,0,7.9800776,0,1 @ F,0,0,1,0,3,0,1 @ F,0,0,1,0,3,0,1 @ F,0,0,1,0,1.4703836,0,1 @ F,0,0,1,0,1.4703836,0,1 @ F,0,0,1,0,3,0,1 @ F,0,0,1,0,3,0,1 @ F,0,0,1,0,1.4703836,0,1 @ F,0,0,1,0,1.4703836,0,1 @ F,0,0,1,0,3,0,1 @ F,0,0,1,0,3,0,1 @ F,0,0,1,0,1.2360086,0,1 @ F,0,1,1,0,1.2360086,0,1 @ F,0,0,1,0,3,0,1 @ F,0,0,1,0,3,0,1 @ F,0,0,1,0,1.4703836,0,1 @ F,0,0,1,0,1.4703836,0,1 @ F,0,0,1,0,1.4703836,0,1 @ F,0,0,1,0,3,0,1 @ F,0,0,1,0,3,0,1"
       radius="0"
       unit="px"
       method="auto"
       mode="F"
       chamfer_steps="1"
       flexible="false"
       use_knot_distance="true"
       apply_no_radius="true"
       apply_with_radius="true"
       only_selected="false"
       hide_knots="false" />
  </defs>
  <sodipodi:namedview
     id="namedview4"
     pagecolor="#ffffff"
     bordercolor="#000000"
     borderopacity="0.25"
     inkscape:showpageshadow="2"
     inkscape:pageopacity="0.0"
     inkscape:pagecheckerboard="0"
     inkscape:deskcolor="#d1d1d1"
     showgrid="true"
     inkscape:zoom="8"
     inkscape:cx="20.1875"
     inkscape:cy="44.1875"
     inkscape:window-width="1972"
     inkscape:window-height="1316"
     inkscape:window-x="26"
     inkscape:window-y="23"
     inkscape:window-maximized="0"
     inkscape:current-layer="svg4">
    <inkscape:grid
       id="grid4"
       units="px"
       originx="0"
       originy="0"
       spacingx="1"
       spacingy="1"
       empcolor="#0099e5"
       empopacity="0.30196078"
       color="#0099e5"
       opacity="0.14901961"
       empspacing="5"
       enabled="true"
       visible="true" />
  </sodipodi:namedview>
  <path
     style="fill:#000000;fill-opacity:0;stroke:#241f31;stroke-width:2;stroke-linecap:round;stroke-dasharray:none;paint-order:stroke markers fill"
     d="M 23.980078,61 H 44.019922 A 7.9800776,7.9800776 135 0 0 52,53.019922 V 39 a 3,3 45 0 0 -3,-3 3,3 135 0 0 -3,3 v 0.529616 A 1.4703836,1.4703836 135 0 1 44.529616,41 h -0.05923 A 1.4703836,1.4703836 45 0 1 43,39.529616 V 36 a 3,3 45 0 0 -3,-3 3,3 135 0 0 -3,3 v 1.529616 A 1.4703836,1.4703836 135 0 1 35.529616,39 h -0.05923 A 1.4703836,1.4703836 45 0 1 34,37.529616 V 17 a 3,3 45 0 0 -3,-3 3,3 135 0 0 -3,3 v 23.076491 a 1.4791624,1.4791624 129.8826 0 1 -1.216341,1.455626 1.4878634,1.4878634 30.932458 0 1 -1.557065,-0.933083 L 18.270395,25.717737 a 3.0320887,3.0320887 20.251254 0 0 -4.001494,-1.476328 l -0.0378,0.01718 a 2.9470941,2.9470941 110.04635 0 0 -1.441298,3.949991 l 8.078032,16.963867 a 1.6187778,1.6187778 106.78645 0 1 -0.628677,2.084057 2.6555523,2.6555523 178.07349 0 1 -2.554307,0.08592 L 16.315151,46.657576 A 5.9199905,5.9199905 40.513687 0 1 14.145357,44.8035 L 11.743715,41.4412 A 3.2495847,3.2495847 11.749283 0 0 7.4275212,40.543487 2.9625921,2.9625921 102.84893 0 0 6.5031088,44.596279 l 5.4985832,9.497552 A 13.841024,13.841024 29.965709 0 0 23.980078,61 Z"
     id="path5"
     sodipodi:nodetypes="cccccccccccccccccccccc"
     inkscape:path-effect="#path-effect5"
     inkscape:original-d="M 16,61 H 52 V 36 h -6 v 5 h -3 v -8 h -6 v 6 H 34 V 14 H 28 V 41.3125 L 25.75,41.71875 17,23 l -5.5,2.5 10,21 L 19,48 15,46 10,39 5,42 Z" />
  <path
     style="fill:#000000;fill-opacity:0;stroke:#241f31;stroke-width:4;stroke-linecap:round;stroke-dasharray:none;paint-order:stroke markers fill"
     id="path6"
     sodipodi:type="arc"
     sodipodi:cx="15.433428"
     sodipodi:cy="26.862181"
     sodipodi:rx="7.1949081"
     sodipodi:ry="7.1949081"
     sodipodi:start="2.3561945"
     sodipodi:end="6.0213859"
     sodipodi:open="true"
     sodipodi:arc-type="arc"
     d="m 10.345859,31.949749 a 7.1949081,7.1949081 0 0 1 -1.4332325,-8.128268 7.1949081,7.1949081 0 0 1 7.1478785,-4.12683 7.1949081,7.1949081 0 0 1 6.32267,5.30535" />
  <path
     style="fill:#000000;fill-opacity:0;stroke:#241f31;stroke-width:4;stroke-linecap:round;stroke-dasharray:none;paint-order:stroke markers fill"
     id="circle6"
     sodipodi:type="arc"
     sodipodi:cx="31"
     sodipodi:cy="17"
     sodipodi:rx="7"
     sodipodi:ry="7"
     sodipodi:start="2.8797933"
     sodipodi:end="0.26179939"
     sodipodi:open="true"
     sodipodi:arc-type="arc"
     d="m 24.238519,18.811733 a 7,7 0 0 1 2.746446,-7.545797 7,7 0 0 1 8.03007,0 7,7 0 0 1 2.746446,7.545797" />
  <path
     style="fill:#000000;fill-opacity:0;stroke:#241f31;stroke-width:2;stroke-linecap:round;stroke-dasharray:none;paint-order:stroke markers fill;stroke-linejoin:round"
     d="m 45,4 -4,4 4,4"
     id="path7" />
  <path
     style="fill:#000000;fill-opacity:0;stroke:#241f31;stroke-width:2;stroke-linecap:round;stroke-dasharray:none;paint-order:stroke markers fill"
     d="m 42,8 h 5 a 8,8 45 0 1 8,8 v 1"
     id="path8"
     inkscape:path-effect="#path-effect8"
     inkscape:original-d="m 42,8 h 13 v 9"
     sodipodi:nodetypes="ccc" />
</svg>

<svg width='64' height='64'
     xmlns:gpa='https://www.gtk.org/grappa'
     gpa:version='1'
     gpa:state='0'>
  <path d='M 23.9800777 61 L 44.0199203 61 C 48.4271965 61, 52 57.4271965, 52 53.0199203 L 52 39 C 52 37.3431473, 50.6568527 36, 49 36 C 47.3431473 36, 46 37.3431473, 46 39 L 46 39.5296173 C 46 40.3416862, 45.3416862 41, 44.5296173 41 L 44.4703865 41 C 43.6583138 41, 43 40.3416901, 43 39.5296173 L 43 36 C 43 34.3431473, 41.6568527 33, 40 33 C 38.3431473 33, 37 34.3431473, 37 36 L 37 37.5296173 C 37 38.3416862, 36.3416862 39, 35.5296173 39 L 35.4703865 39 C 34.6583138 39, 34 38.3416901, 34 37.5296173 L 34 17 C 34 15.3431454, 32.6568527 14, 31 14 C 29.3431454 14, 28 15.3431454, 28 17 L 28 40.0764923 C 27.9999981 40.7920303, 27.4878139 41.4049759, 26.783659 41.5321159 C 26.1130466 41.6103973, 25.4737911 41.2273178, 25.2265949 40.5990334 L 18.2703953 25.7177372 C 17.5665989 24.2121181, 15.7819223 23.5536728, 14.2689009 24.2414093 L 14.231101 24.2585888 C 13.5112677 24.5857849, 12.9531088 25.1885166, 12.6820707 25.9313202 C 12.4110317 26.6741219, 12.449851 27.4946823, 12.7898026 28.20858 L 20.8678341 45.1724472 C 21.226366 45.9253616, 20.9542408 46.8274536, 20.2391586 47.2565041 C 19.458395 47.7199211, 18.4949894 47.752327, 17.6848507 47.3424225 L 16.3151512 46.6575775 C 15.4515047 46.2257538, 14.7065926 45.5892296, 14.1453571 44.8035011 L 11.7437153 41.4412003 C 10.7589779 40.0625687, 8.88029099 39.6718254, 7.42752123 40.5434875 C 6.06428814 41.4152641, 5.65273476 43.219593, 6.50310898 44.5962791 L 12.0016918 54.0938301 C 14.4763117 58.3681717, 19.0410748 61, 23.9800777 61 Z'
        id='path0'
        stroke-width='2'
        stroke-linecap='round'
        stroke-linejoin='round'
        stroke='rgb(0,0,0)'
        fill-rule='winding'
        fill='rgb(0,0,0)'
        class='foreground-stroke foreground-fill'/>
  <path d='M 10.3458586 31.949749 C 8.20705414 29.8109436, 7.63432169 26.5628166, 8.91262627 23.8214817 C 10.1909313 21.0801468, 13.047287 19.4310284, 16.0605049 19.6946507 C 19.0737228 19.9582729, 21.600317 22.0783386, 22.3831749 25.0000019'
        id='path1'
        stroke-width='2'
        stroke-linecap='round'
        stroke-linejoin='round'
        stroke='rgb(0,0,0)'
        fill='none'
        class='foreground-stroke transparent-fill'/>
  <path d='M 24.2385197 18.8117332 C 23.4768696 15.9692183, 24.5743732 12.9538507, 26.9849644 11.2659359 C 29.3955555 9.578022, 32.6044426 9.578022, 35.0150337 11.2659359 C 37.4256248 12.9538498, 38.5231323 15.9692173, 37.7614822 18.8117332'
        id='path2'
        stroke-width='2'
        stroke-linecap='round'
        stroke-linejoin='round'
        stroke='rgb(0,0,0)'
        fill='none'
        class='foreground-stroke transparent-fill'/>
  <path d='M 45 4 L 41 8 L 45 12'
        id='path3'
        stroke-width='2'
        stroke-linecap='round'
        stroke-linejoin='round'
        stroke='rgb(0,0,0)'
        fill='none'
        class='foreground-stroke transparent-fill'/>
  <path d='M 42 8 L 47 8 C 51.4182777 8, 55 11.5817223, 55 16 L 55 17'
        id='path4'
        stroke-width='2'
        stroke-linecap='round'
        stroke-linejoin='round'
        stroke='rgb(0,0,0)'
        fill='none'
        class='foreground-stroke transparent-fill'/>
</svg>
